-- synth setup
let bd = midichan 2 # note "c3"
    cp = midichan 3 # note "c3"
    perc1 = midichan 6 # note "c3"
    perc2 = midichan 7 # note "c3"
    ch = midichan 10 # note "c3"
    pad = midichan 0
    rytm = s "rytm"

-- helper funcs
let shift p = (1 ~>) $ p
    shiftBy x p = (x ~>) $ p
    shrand x = shiftBy x $ rand
